icons/icn_twitter.svg

<svg width="24" xmlns="http://www.w3.org/2000/svg" height="24" id="screenshot-bfd96ead-884f-806b-8006-9b0372c783ca" viewBox="0 0 24 24" xmlns:xlink="http://www.w3.org/1999/xlink" fill="none" version="1.1"><g id="shape-bfd96ead-884f-806b-8006-9b0372c783ca"><g class="frame-container-wrapper"><g class="frame-container-blur"><g class="frame-container-shadows"><g fill="none"><g class="fills" id="fills-bfd96ead-884f-806b-8006-9b0372c783ca"><rect rx="0" ry="0" x="0" y="0" width="24" height="24" transform="matrix(1, 0, 0, 1, 0, 0)" class="frame-background"/></g><g class="frame-children"><g id="shape-bfd96ead-884f-806b-8006-9b01c4c3ce51"><g class="fills" id="fills-bfd96ead-884f-806b-8006-9b01c4c3ce51"><rect rx="4" ry="4" x="0" y="0" transform="matrix(1, 0, 0, 1, 0, 0)" width="24" height="24" style="fill: rgb(0, 0, 0); fill-opacity: 1;"/></g></g><g id="shape-bfd96ead-884f-806b-8006-9affaff72ba5"><g class="fills" id="fills-bfd96ead-884f-806b-8006-9affaff72ba5"><path d="M6.000048637390137,16.065689086914062C7.142382621765137,16.798233032226562,8.499316215515137,17.225967407226562,9.956835746765137,17.225967407226562C14.750292778015137,17.225967407226562,17.457569122314453,13.177627563476562,17.294727325439453,9.546524047851562C17.799121856689453,9.182998657226562,18.236865997314453,8.728408813476562,18.583057403564453,8.209976196289062C18.119922637939453,8.415176391601562,17.621875762939453,8.554092407226562,17.100147247314453,8.616348266601562C17.632862091064453,8.297622680664062,18.042285919189453,7.7916412353515625,18.234912872314453,7.1882476806640625C17.736377716064453,7.4840240478515625,17.183643341064453,7.6991119384765625,16.595996856689453,7.8150787353515625C16.125049591064453,7.3132476806640625,15.454394340515137,7.0000152587890625,14.711474418640137,7.0000152587890625C13.045214653015137,7.0000152587890625,11.820849418640137,8.555068969726562,12.196581840515137,10.169448852539062C10.051562309265137,10.062393188476562,8.148730278015137,9.034194946289062,6.876025199890137,7.4720611572265625C6.199755668640137,8.632827758789062,6.525439262390137,10.151016235351562,7.675341606140137,10.918838500976562C7.251513481140137,10.905899047851562,6.853075981140137,10.789443969726562,6.505175590515137,10.595718383789062C6.477587699890137,11.792251586914062,7.334765434265137,12.910659790039062,8.575976371765137,13.160171508789062C8.212450981140137,13.259292602539062,7.814745903015137,13.281143188476562,7.410449028015137,13.203994750976562C7.738574028015137,14.230239868164062,8.691943168640137,14.975723266601562,9.821825981140137,14.997085571289062C8.736865043640137,15.847671508789062,7.369433403015137,16.227554321289062,6.000048637390137,16.065689086914062" style="fill-rule: nonzero; stroke: none; stroke-width: 0.133333; fill: rgb(255, 255, 255); fill-opacity: 1;"/></g></g></g></g></g></g></g></g></svg>

<svg fill="none" viewBox="0 0 24 24"><g class="frame-container-wrapper"><g class="frame-container-blur"><g class="frame-container-shadows"><g class="fills"><rect width="24" height="24" class="frame-background" rx="0" ry="0"/></g><g class="frame-children"><rect width="24" height="24" fill="#000" class="fills" rx="4" ry="4"/><path fill="#fff" d="M6 16.0657c1.1424.7325 2.4993 1.1603 3.9568 1.1603 4.7935 0 7.5008-4.0484 7.338-7.6795A5.2298 5.2298 0 0 0 18.583 8.21a5.1673 5.1673 0 0 1-1.483.4063c.5328-.3187.9422-.8247 1.1348-1.428a5.1744 5.1744 0 0 1-1.6389.6268A2.5774 2.5774 0 0 0 14.7115 7c-1.6663 0-2.8907 1.555-2.515 3.1693-2.145-.107-4.0478-1.1352-5.3205-2.6973-.6762 1.1607-.3506 2.679.7993 3.4467a2.5618 2.5618 0 0 1-1.1701-.323c-.0276 1.1965.8296 2.3149 2.0708 2.5644a2.5843 2.5843 0 0 1-1.1656.0438c.3282 1.0262 1.2815 1.7717 2.4114 1.793-1.085.8507-2.4524 1.2306-3.8218 1.0687" class="fills"/></g></g></g></g></svg>
